X:1
T:Title
%%score 1 2
L:1/8
Q:1/4=80
M:4/4
K:Ab
V:1 treble nm="Strings 1, SOPRANO ALTO"
V:2 bass nm="Strings 1, TENOR BASS"
V:1
 [CE][CE][CA][CA] [Ec]2 [CA]2 | [Ec][Ec][EB][Ec] [Ed]4 | [Ec][Ec][Ec][Ed] [Ae]2 [Ec]2 | %3
w: 1.~See,~ the~ Lord~ hath~ made~ us~|by~ His~ might y~ pow'r,~|And~ He~ watch es~ o'er~ us~|
 [Fd][Ec][EB][=DA] [EB]4 | [CE][CE][CA][CA] [Ec]2 [CA]2 | [Ec][Ec][EB][Ec] [Ed]4 | %6
w: eve ry~ day~ and~ hour;~|This~ we~ do~ re mem ber~|when~ we~ kneel~ in~ prayer,~|
 [Ec][Ec][Ec][Ed] [Ae]2 [Ec]2 | [Ge][Fd][Ec][DB] [CA]4 | [Ec][Ec][Ec][Ec] [Ec]2 [CA]2 | %9
w: God~ is~ up~ in~ heav en,~|God~ is~ eve ry where.~||
 [Ec][Ec][Ae][Ed] [Ec]4 | [EB][EB][EB][EB] [EB]2 [EG]2 | [EB][EB][Ec][DB] [CA]4 | %12
w: |||
 [CG][CG][CG][CG] [CG]2 [CB]2 | [CA][=EG][FA][GB] [Ac]4 | [GB][GB] [Ge]2 [Ae][Gd] [Fc]2 | %15
w: |||
 [=DA]2 [Ec][_DB] [CA]4 |] %16
w: |
V:2
 [A,,A,][A,,A,][A,,E,][A,,E,] [A,,A,]2 [A,,E,]2 | A,A,[G,B,]A, [E,G,]4 | A,A,A,[A,B,] [A,C]2 A,2 | %3
 A,A,[G,B,][F,B,] [E,G,]4 | [A,,A,][A,,A,][A,,E,][A,,E,] [A,,A,]2 [A,,E,]2 | A,A,[G,B,]A, [E,G,]4 | %6
 A,A,A,[A,B,] [A,C]2 A,2 | [E,B,][E,G,][E,A,][E,G,] [A,,E,]4 | %8
 [A,,A,][A,,A,][A,,A,][A,,A,] [A,,A,]2 [A,,E,]2 | A,A,[A,C][A,B,] A,4 | %10
 [E,G,][E,G,][E,G,][E,G,] [E,G,]2 [E,B,]2 | [E,G,][E,G,][E,A,][E,G,] [A,,E,]4 | %12
 [C,=E,][C,E,][C,E,][C,E,] [C,E,]2 [E,G,]2 | [F,A,][C,B,][F,C][E,E] [A,E]4 | %14
 [E,E][E,E] [E,B,]2 [A,C][E,B,] [F,A,]2 | [=E,A,]2 [_E,A,][E,G,] [A,,E,]4 |] %16

